openframe-frontend-core/src/components/icons-v2/brand-logos/instagram.svg

<svg width="24" height="24" viewBox="0 0 24 24" fill="none" xmlns="http://www.w3.org/2000/svg">
<path d="M19.875 6C19.875 4.96447 19.0355 4.125 18 4.125H6C4.96447 4.125 4.125 4.96447 4.125 6V18C4.125 19.0355 4.96447 19.875 6 19.875H18C19.0355 19.875 19.875 19.0355 19.875 18V6ZM22.125 18C22.125 20.2782 20.2782 22.125 18 22.125H6C3.72183 22.125 1.875 20.2782 1.875 18V6C1.875 3.72183 3.72183 1.875 6 1.875H18C20.2782 1.875 22.125 3.72183 22.125 6V18Z" fill="#888888"/>
<path d="M14.8745 12.0005C14.8745 10.4128 13.5881 9.12526 12.0005 9.125C10.4127 9.125 9.125 10.4127 9.125 12.0005C9.12526 13.5881 10.4128 14.8745 12.0005 14.8745C13.5879 14.8742 14.8742 13.5879 14.8745 12.0005ZM17.4995 5.375L17.6152 5.38086C18.1824 5.43857 18.6245 5.91758 18.6245 6.5C18.6245 7.08242 18.1824 7.56143 17.6152 7.61914L17.4995 7.625H17.4907C16.8694 7.625 16.3657 7.12132 16.3657 6.5C16.3657 5.87868 16.8694 5.375 17.4907 5.375H17.4995ZM17.1245 12.0005C17.1242 14.8306 14.8306 17.1242 12.0005 17.1245C9.17019 17.1245 6.87526 14.8307 6.875 12.0005C6.875 9.17003 9.17003 6.875 12.0005 6.875C14.8307 6.87526 17.1245 9.17019 17.1245 12.0005Z" fill="#888888"/>
</svg>

<svg xmlns="http://www.w3.org/2000/svg" width="24" height="24" fill="none" viewBox="0 0 24 24">
  <path fill="#888" d="M19.875 6c0-1.036-.84-1.875-1.875-1.875H6c-1.036 0-1.875.84-1.875 1.875v12c0 1.035.84 1.875 1.875 1.875h12c1.035 0 1.875-.84 1.875-1.875V6Zm2.25 12A4.125 4.125 0 0 1 18 22.125H6A4.125 4.125 0 0 1 1.875 18V6A4.125 4.125 0 0 1 6 1.875h12A4.125 4.125 0 0 1 22.125 6v12Z"/>
  <path fill="#888" d="M14.874 12a2.875 2.875 0 1 0-5.75 0 2.875 2.875 0 0 0 5.75 0ZM17.5 5.376l.115.006a1.125 1.125 0 0 1 0 2.238l-.115.006h-.01a1.125 1.125 0 0 1 0-2.25h.01Zm-.375 6.626a5.124 5.124 0 1 1-10.249 0 5.124 5.124 0 0 1 10.248 0Z"/>
</svg>
